X: 40243
T: Tír Na Nóg
R: jig
M: 6/8
K: Amixolydian
e|dcA GFG|AFD DEF|EFG ABd|e3 e2f|
edc AGF|G2E EFG|ABd cAG|1 A3 A2e:|2 A5 f/g/||
agf g2e|fed cAG|ABd efg|a3 a2b|
agf g2e|fed cAG|ABd cAG|1 A3 A2f/g/:|2 A3 A2||

